X:1
T:Casta diva
T:Casta diva
T:Arrangment pour clavier
T:Bellini/Chopin
C:Bellini/Chopin
%%score { ( 1 3 ) | ( 2 4 ) }
L:1/8
M:12/8
K:E
V:1 treble nm="Piano" snm="Pno."
V:3 treble 
V:2 bass 
V:4 bass 
V:1
 z6!p! A3- A2 ^A | cGA BA^E!>(! F3 ^^F3!>)! | G,B,E GEB, G,B,E GEB, | G6 B3/2A3/2 G3/2F3/2 | %4
 F6 z2 E2 x2 | G3 E2- E/F/ G2 A/4G/4^^F/4G/4 c2 B | c2- c/B/ BAG A3 z3 | %7
 A6- A3/2B/4A/4G/A/ c>BA/G/ | G3- G>BA/^E/ F2 z F2 G | A2 F c2 B cBA AG^^F | ^^F3 G3 z3 G2 c | %11
 c^Bd A3 z ^^FG edc | c^Bd!<(! A3 ^A3!<)![Q:1/4=120]"^poco rit." !tenuto!=B2-!>(! B/c/!>)! | %13
!mp![Q:1/4=120]"^a tempo" c2 B c2 B A2!<(! B A/B/c/d/e/f/!<)! | g !>!g3 !>!g3 !>!g3 !>!g2 | %15
 a>gf/e/ f>ed/c/ d>cB/A/ B>AG/F/ | c>B^A/B/ d>eB/G/ G>F^E/!>(!F/ A>B=A/F/ | %17
 E3!>)! z3 !arpeggio![EFce]6 |"_dim." !arpeggio![EF=ce]6 !arpeggio![FBe]3 d^cd | %19
[Q:1/4=120]"^a tempo"!pp! G,B,E GEB, G,B,E GEB, | G6 B3/2A3/2 G3/2F3/2 | F6 z2 E2 x2 | %22
 G3 E2- E/F/ G2 A/4G/4^^F/4G/4 c2 B | c2- c/B/ BAG A3 z3 | A6- A3/2B/4A/4G/A/ c>BA/G/ | %25
 G3- G>BA/^E/ F2 z F2 G | A2 F c2 B cBA AG^^F | ^^F3 G3 z3 G2 c | c^Bd A3 z ^^FG edc | %29
 c^Bd!<(! A3 !tenuto!^A3!<)!"^poco rit." !tenuto!=B2-!>(! B/c/!>)! | %30
!mp![Q:1/4=120]"^a tempo" c2 B c2 B ^A2!<(! B A/B/c/d/e/f/!<)! | g g3 g3 g3 g2 | %32
!f! a>[Q:1/4=120]"_a tempo"gf/e/ f>ed/c/ d>cB/A/ B>AG/F/ | c>B^A/B/ d>eB/G/ G>F^E/!>(!F/ A>B=A/F/ | %34
 EG,B,!>)! GEB, G,B,E GEB, |!pp! G,12 |] %36
V:2
 z12 | z12 | [E,,E,]12 | [E,G,]6 [B,,A,]6 | [B,,F,]6 [E,G,]6 | G,B,E GEB, [C,G,]C^E GEC | %6
 z CF AFC A,CF AFC | A,CF AFC B,C^E GEC | z C^E GEC [F,,F,][A,C]F [D,,D,] [A,C]2 | %9
 A,B,D FDB, A,B,D FDB, | [E,,A,,D,]G,B, EB,G, [C,G,]CE GEC | [D,A,]^B,D FDB, C,CE GEC | %12
 [D,A,]^B,D FDB, C,[E=G]^A, D,[DA]=B, | [E,G,]B,E GEB, [F,A,]B,D GFD | %14
 [^E,,^E,][B,=D]G [F,,F,][^B,^D]G [E,,E,][=B,=D]G [F,,F,][^B,^D]G | %15
 [C,,C,][G,C]E GEC [A,,,A,,][F,A,]C FCA, | [B,,,B,,]B,E GEB, [B,,,B,,]B,D FDB, | %17
 [E,,E,]G,B, EB,G, ^A,,C,F, ^A,F,C, | A,,=C,F, A,F,C, B,,3[K:treble]"^rit." [B,D]FA | %19
[K:bass] [E,,E,]12 | [E,G,]6 [B,,A,]6 | [B,,F,]6 [E,G,]6 | G,B,E GEB, [C,G,]C^E GEC | %23
 z CF AFC A,CF AFC | A,CF AFC A,C^E GEC | z C^E GEC [F,,F,]A,C [D,,D,] [A,C]2 | %26
 A,B,D FDB, A,B,D FDB, | [E,,A,,D,]G,B, EB,G, [C,G,]CE GEC | [D,A,]^B,D C,FD C,CE GEC | %29
 [D,A,]^B,D FDB, C,[E=G]^A, D,[DA]=B, | [E,G,]B,E GEB, [F,A,]B,D AFD | %31
 [^E,,^E,][B,=D]G"^allargando" [F,,F,][^B,^D]G [E,,E,][=B,=D]G [F,,F,][^B,^D]G | %32
 [C,,C,][G,C]E GEC [A,,,A,,][F,A,]C FCA, | [B,,,B,,]B,E GEB, [B,,,B,,]B,D FDB, | %34
 E,,3 B,,3 G,,3 B,,3 | E,,12 |] %36
V:3
 x12 | x12 | x12 | z B,E GEB, z B,D FDB, | A,B,D FDB, z B,E GEB, | x12 | x12 | x12 | x12 | x12 | %10
 x12 | x12 | x12 | x12 | x12 | x12 | x12 | x12 | x12 | x12 | z B,E GEB, z B,D FDB, | %21
 A,B,D FDB, z B,E GEB, | x12 | x12 | x12 | x12 | x12 | x12 | x12 | x12 | x12 | x12 | x12 | x12 | %34
 x12 | x12 |] %36
V:4
 x12 | x12 | x12 | x12 | x12 | E,6 C,2 z z3 | [F,,F,]6 F,6 | [F,,F,]6 [C,,C,]6 | [F,,F,]6 z4 x2 | %9
 [B,,A,]6 [B,,A,]6 | x12 | x12 | x12 | x12 | x12 | x12 | x12 | x12 | x9[K:treble] x3 | %19
[K:bass] x12 | x12 | x12 | E,6 C,2 z z3 | [F,,F,]6 F,6 | [F,,F,]6 [C,,C,]6 | [F,,F,]6 z4 x2 | %26
 [B,,A,]6 [B,,A,]6 | x12 | x12 | x12 | x12 | x12 | x12 | x12 | x12 | x12 |] %36

